images/advantages-icon-2.svg

<svg width="68" height="70" viewBox="0 0 68 70" fill="none" xmlns="http://www.w3.org/2000/svg">
<path d="M61.8564 16.601C61.5036 16.4498 61.1142 16.407 60.7371 16.4779C60.4863 16.5251 60.2471 16.6215 60.0334 16.7616C59.8197 16.9018 59.6357 17.0828 59.4918 17.2945C59.3479 17.5061 59.247 17.7441 59.1949 17.995C59.1428 18.2458 59.1406 18.5045 59.1882 18.7562C59.2598 19.1345 59.4415 19.483 59.7103 19.7577C59.9791 20.0324 60.323 20.2209 60.6985 20.2995C61.074 20.3781 61.4642 20.3432 61.82 20.1993C62.1757 20.0553 62.481 19.8087 62.6972 19.4907C62.9135 19.1726 63.0309 18.7974 63.0348 18.4123C63.0387 18.0273 62.9289 17.6497 62.7191 17.3274C62.5094 17.005 62.2092 16.7522 61.8564 16.601Z" fill="#96A4D3"/>
<path fill-rule="evenodd" clip-rule="evenodd" d="M34.4223 0.381618C35.1457 0.245662 35.8931 0.328084 36.5699 0.618464C37.2467 0.908844 37.8225 1.39414 38.2246 2.01302C38.6267 2.63189 38.837 3.35654 38.8289 4.09537C38.8208 4.8342 38.5947 5.55404 38.1791 6.16388C37.7636 6.77372 37.1772 7.24618 36.4942 7.52154C35.8112 7.79689 35.0622 7.86279 34.3419 7.71088C33.6217 7.55898 32.9624 7.19609 32.4475 6.66811C31.9326 6.14013 31.5852 5.47075 31.4492 4.74459C31.3589 4.26213 31.3641 3.76652 31.4647 3.28609C31.5652 2.80566 31.7591 2.34982 32.0352 1.94464C32.3113 1.53946 32.6642 1.19287 33.0738 0.924674C33.4834 0.656483 33.9416 0.471949 34.4223 0.381618ZM58.8194 44.6265C58.4295 43.9291 57.8513 43.3565 57.1513 42.9747L58.1215 42.4393C59.0772 41.9093 59.785 41.021 60.0902 39.9687C60.3953 38.9163 60.273 37.7854 59.7499 36.8233C59.3472 36.0818 58.7245 35.4846 57.9684 35.1146L58.7513 34.6817C59.2282 34.4207 59.6492 34.0678 59.9901 33.6433C60.331 33.2188 60.5851 32.7309 60.7379 32.2077C60.8908 31.6845 60.9393 31.1361 60.8807 30.594C60.8222 30.0519 60.6577 29.5267 60.3967 29.0485C59.8667 28.0912 58.9814 27.3829 57.9336 27.0778C56.8858 26.7727 55.7604 26.8955 54.8024 27.4195L54.0024 27.9094C54.0674 27.1636 53.9295 26.4142 53.6034 25.741C53.2774 25.0677 52.7754 24.496 52.151 24.0867C51.5267 23.6774 50.8034 23.446 50.0582 23.417C49.3131 23.3881 48.5742 23.5627 47.9201 23.9223L43.818 26.2006C43.3602 25.2048 42.572 24.3995 41.5882 23.9223C40.7193 23.5025 39.7439 23.3575 38.7911 23.5065L39.2393 22.5838C39.7885 21.4508 39.867 20.1453 39.4573 18.9542C39.2545 18.3645 38.9379 17.8207 38.5257 17.3538C38.1135 16.8869 37.6137 16.506 37.0549 16.233C35.9263 15.6816 34.6258 15.6029 33.4394 16.0141C32.253 16.4254 31.2779 17.2929 30.7287 18.4259L30.2748 19.3657C29.8016 18.5446 29.0968 17.8827 28.2493 17.4633C27.1203 16.9155 25.8212 16.8393 24.6364 17.2514C23.4517 17.6635 22.478 18.5303 21.9287 19.6619L12.0904 39.8705C11.8671 40.2002 11.6662 40.5446 11.489 40.9015L10.9216 42.0919L10.8649 41.9438C10.5605 41.1406 10.2761 40.324 10.096 39.8068C10.0411 39.6492 9.99589 39.5194 9.96275 39.4263C9.03793 36.7151 7.26772 35.3709 5.48049 35.1146C4.69278 34.9972 3.88815 35.0915 3.14858 35.3879C2.39982 35.6897 1.73987 36.1778 1.23085 36.8062C-0.0173738 38.3327 -0.516664 40.7933 0.691845 43.738V43.7892C0.940318 44.5221 1.25356 45.5471 1.62116 46.75C3.1506 51.7548 5.62107 59.839 8.28332 62.7733C12.3684 67.273 22.95 71.4993 28.6407 69.4829C31.8995 68.3317 34.573 65.9344 36.079 62.8132L36.6464 61.6057C43.4927 57.8313 50.3409 54.0474 57.1911 50.254C58.1458 49.723 58.8524 48.8343 59.1564 47.782C59.4605 46.7297 59.3373 45.5993 58.8137 44.6379L58.8194 44.6265ZM44.2435 28.0347L45.1571 27.5335C46.3728 26.8667 47.5965 26.1956 48.8166 25.5171C49.3378 25.2338 49.9487 25.1663 50.5187 25.3292C50.8027 25.4103 51.0678 25.5473 51.2986 25.732C51.5294 25.9168 51.7214 26.1458 51.8634 26.4057C52.1457 26.9289 52.2129 27.5422 52.0506 28.1144C51.9689 28.3983 51.832 28.6632 51.648 28.8939C51.464 29.1246 51.2364 29.3165 50.9783 29.4586L46.3258 32.0274L46.2636 31.9903C46.1322 31.9117 46.0027 31.8343 45.8606 31.7654C45.0368 31.3631 44.114 31.2107 43.2053 31.3268L43.7726 30.1877C44.0944 29.5166 44.2556 28.7794 44.2435 28.0347ZM47.7613 33.4685L55.7045 29.0827C56.2265 28.8012 56.8373 28.7358 57.4067 28.9004C57.69 28.9814 57.9544 29.1183 58.1843 29.3031C58.4142 29.488 58.6051 29.7171 58.7457 29.9769C59.0279 30.5001 59.0951 31.1134 58.9329 31.6857C58.8535 31.9714 58.7177 32.2382 58.5335 32.4701C58.3492 32.702 58.1204 32.8943 57.8606 33.0356L47.8294 38.5776L48.045 38.1219C48.3174 37.5622 48.4763 36.9537 48.5123 36.3318C48.5483 35.7099 48.4608 35.087 48.2549 34.4994C48.1322 34.1371 47.9664 33.791 47.7613 33.4685ZM46.3258 41.6761L55.0691 36.8461C55.3266 36.704 55.6094 36.6142 55.9015 36.582C56.1936 36.5497 56.4891 36.5756 56.7712 36.6581C57.0556 36.7384 57.321 36.875 57.552 37.0598C57.7829 37.2447 57.9747 37.4742 58.1159 37.7346C58.3956 38.2595 58.4596 38.8734 58.2942 39.445C58.1288 40.0166 57.7471 40.5005 57.2308 40.7933L45.435 47.3092L46.3372 48.9838L54.1442 44.6721C54.6654 44.3887 55.2763 44.3213 55.8464 44.4841C56.1315 44.5644 56.3975 44.7017 56.6286 44.8876C56.8596 45.0736 57.0509 45.3044 57.1911 45.5663C57.4733 46.0895 57.5405 46.7028 57.3783 47.2751C57.2983 47.5605 57.1623 47.827 56.9781 48.0589C56.7939 48.2907 56.5654 48.4832 56.306 48.625L38.0932 58.6666L42.2095 50.1714L46.3258 41.6761ZM34.1499 61.862C32.8893 64.4812 30.6446 66.4909 27.9088 67.4496C23.0578 69.1583 13.3159 65.1371 9.84361 61.3152C7.46844 58.6993 4.87959 50.1409 3.48492 45.5303C3.16383 44.4689 2.90604 43.6166 2.72872 43.0944C2.718 43.0437 2.70281 42.9942 2.68333 42.9463C1.8039 40.816 2.07624 39.1415 2.88759 38.1618C3.17154 37.8127 3.54109 37.5438 3.95993 37.3815C4.34925 37.2206 4.77441 37.1675 5.19113 37.2277C6.25212 37.3872 7.33013 38.2757 7.95992 40.1098C7.98484 40.181 8.0164 40.272 8.05355 40.3792C8.23635 40.9065 8.55467 41.8247 8.88474 42.6956C9.18166 43.544 9.56177 44.3606 10.0195 45.1334C10.1252 45.3165 10.2834 45.4634 10.4734 45.5549H11.4209L13.5032 41.8413C15.6288 37.3962 17.772 33.0019 19.926 28.5856C21.2332 25.9056 22.5442 23.2174 23.8578 20.5048C24.1595 19.8889 24.692 19.4179 25.3386 19.1948C25.6577 19.0809 25.9964 19.0322 26.3345 19.0518C26.6726 19.0714 27.0034 19.1587 27.3074 19.3087C27.9206 19.6093 28.39 20.142 28.6124 20.7896C28.7259 21.11 28.7743 21.4499 28.7548 21.7894C28.7353 22.1288 28.6483 22.4609 28.4989 22.7661L21.7528 36.698L23.75 37.6777L32.6634 19.2859C32.8847 18.8228 33.2385 18.4365 33.6798 18.1765C34.121 17.9165 34.6295 17.7946 35.1401 17.8264C35.6507 17.8582 36.1403 18.0423 36.5461 18.3551C36.9519 18.6679 37.2555 19.0951 37.418 19.5821C37.5293 19.9022 37.576 20.2412 37.5555 20.5795C37.5351 20.9178 37.4478 21.2487 37.2989 21.5529L28.3854 39.9446L30.428 40.9413L37.1968 26.981C37.3454 26.6754 37.5528 26.4024 37.8069 26.1776C38.0611 25.9527 38.357 25.7806 38.6776 25.6709C39.1592 25.5058 39.6787 25.4873 40.1708 25.6176C40.6629 25.748 41.1056 26.0215 41.4433 26.4038C41.781 26.786 41.9987 27.2599 42.0689 27.766C42.1391 28.272 42.0587 28.7876 41.8379 29.2479L35.0634 43.2026L36.9982 44.1481L41.4691 34.9152C41.6178 34.6096 41.8251 34.3366 42.0793 34.1118C42.3334 33.887 42.6293 33.7148 42.9499 33.6052C43.2691 33.4912 43.6077 33.4426 43.9458 33.4622C44.284 33.4817 44.6148 33.5691 44.9187 33.7191C45.5319 34.0222 46.001 34.556 46.2242 35.2045C46.4473 35.853 46.4063 36.5638 46.1102 37.1821C42.1235 45.4068 38.1367 53.6335 34.1499 61.862ZM67.3187 27.1746C67.0128 26.891 66.63 26.7047 66.2187 26.6395C65.8074 26.5743 65.3861 26.633 65.008 26.8082C64.63 26.9834 64.3121 27.2673 64.0948 27.6239C63.8775 27.9804 63.7704 28.3937 63.787 28.8114C63.8037 29.2291 63.9434 29.6324 64.1885 29.9704C64.4335 30.3084 64.773 30.5658 65.1638 30.7101C65.5546 30.8543 65.9793 30.879 66.3841 30.781C66.7888 30.6829 67.1556 30.4665 67.4378 30.1592C67.6265 29.956 67.7732 29.7173 67.8694 29.4569C67.9656 29.1965 68.0094 28.9195 67.9983 28.642C67.9872 28.3644 67.9215 28.0919 67.8048 27.84C67.6882 27.5881 67.5229 27.362 67.3187 27.1746ZM65.7357 27.9094C65.8957 27.8783 66.0612 27.8956 66.2114 27.9592C66.3615 28.0227 66.4895 28.1295 66.5791 28.2661C66.6687 28.4028 66.7159 28.563 66.7146 28.7266C66.7133 28.8901 66.6637 29.0496 66.5721 29.1849C66.4804 29.3201 66.3508 29.425 66.1997 29.4861C66.0486 29.5473 65.8828 29.5621 65.7234 29.5286C65.5639 29.4951 65.4179 29.4148 65.3039 29.2979C65.19 29.181 65.1132 29.0327 65.0832 28.872C65.0433 28.6575 65.0895 28.436 65.2118 28.2556C65.334 28.0753 65.5224 27.9508 65.7357 27.9094ZM25.4634 7.14252C25.8727 7.06968 26.2942 7.12008 26.6749 7.28737C27.0557 7.45465 27.3785 7.73134 27.6029 8.08255C27.8272 8.43377 27.943 8.84379 27.9356 9.26094C27.9281 9.67809 27.7979 10.0837 27.5612 10.4267C27.3245 10.7696 26.992 11.0345 26.6055 11.1881C26.2191 11.3416 25.796 11.3769 25.3897 11.2894C24.9833 11.2019 24.6118 10.9957 24.322 10.6966C24.0323 10.3975 23.8372 10.019 23.7613 9.6088C23.7106 9.33456 23.7145 9.05295 23.7727 8.78022C23.831 8.50749 23.9424 8.24904 24.1007 8.01976C24.2589 7.79049 24.4608 7.59493 24.6947 7.44437C24.9286 7.29381 25.1899 7.19122 25.4634 7.14252ZM25.7017 8.41268C25.8606 8.38277 26.0247 8.40083 26.1733 8.46456C26.3219 8.52829 26.4484 8.63484 26.5367 8.77073C26.625 8.90661 26.6711 9.06573 26.6693 9.22796C26.6675 9.39019 26.6178 9.54824 26.5266 9.68211C26.4353 9.81599 26.3065 9.91968 26.1565 9.98007C26.0065 10.0405 25.842 10.0548 25.6839 10.0214C25.5257 9.98793 25.381 9.90814 25.2681 9.79212C25.1551 9.6761 25.079 9.52905 25.0493 9.36958C25.011 9.15601 25.058 8.9359 25.1801 8.75684C25.3022 8.57778 25.4896 8.45415 25.7017 8.41268ZM34.7797 2.14731C35.1567 2.0764 35.5462 2.11924 35.899 2.27043C36.2518 2.42161 36.552 2.67437 36.7617 2.99675C36.9715 3.31914 37.0813 3.6967 37.0774 4.08174C37.0735 4.46677 36.9561 4.84202 36.7398 5.16006C36.5236 5.4781 36.2183 5.72468 35.8626 5.86864C35.5068 6.01261 35.1166 6.0475 34.7411 5.96891C34.3656 5.89032 34.0217 5.70177 33.7529 5.42709C33.4841 5.15241 33.3024 4.80392 33.2308 4.42563C33.1832 4.1739 33.1854 3.91521 33.2375 3.66438C33.2896 3.41354 33.3905 3.17548 33.5344 2.96385C33.6783 2.75221 33.8623 2.57115 34.076 2.43103C34.2897 2.29092 34.5289 2.1945 34.7797 2.14731Z" fill="#142245"/>
<path d="M55.0691 36.8461L46.3258 41.6761L42.2095 50.1714L38.0932 58.6666L56.306 48.625C56.5654 48.4832 56.7939 48.2907 56.9781 48.0589C57.1623 47.827 57.2983 47.5605 57.3783 47.2751C57.5405 46.7028 57.4733 46.0895 57.1911 45.5663C57.0509 45.3044 56.8596 45.0736 56.6286 44.8876C56.3975 44.7017 56.1315 44.5644 55.8464 44.4841C55.2763 44.3213 54.6654 44.3887 54.1442 44.6721L46.3372 48.9838L45.435 47.3092L57.2308 40.7933C57.7471 40.5005 58.1288 40.0166 58.2942 39.445C58.4596 38.8734 58.3956 38.2595 58.1159 37.7346C57.9747 37.4742 57.7829 37.2447 57.552 37.0598C57.321 36.875 57.0556 36.7384 56.7712 36.6581C56.4891 36.5756 56.1936 36.5497 55.9015 36.582C55.6094 36.6142 55.3266 36.704 55.0691 36.8461Z" fill="#142245"/>
<path d="M55.7045 29.0827L47.7613 33.4685C47.9664 33.791 48.1322 34.1371 48.2549 34.4994C48.4608 35.087 48.5483 35.7099 48.5123 36.3318C48.4763 36.9537 48.3174 37.5622 48.045 38.1219L47.8294 38.5776L57.8606 33.0356C58.1204 32.8943 58.3492 32.702 58.5335 32.4701C58.7177 32.2382 58.8535 31.9714 58.9329 31.6857C59.0951 31.1134 59.0279 30.5001 58.7457 29.9769C58.6051 29.7171 58.4142 29.488 58.1843 29.3031C57.9544 29.1183 57.69 28.9814 57.4067 28.9004C56.8373 28.7358 56.2265 28.8012 55.7045 29.0827Z" fill="#142245"/>
<path d="M45.1571 27.5335L44.2435 28.0347C44.2556 28.7794 44.0944 29.5166 43.7726 30.1877L43.2053 31.3268C44.114 31.2107 45.0368 31.3631 45.8606 31.7654C46.0027 31.8343 46.1322 31.9117 46.2636 31.9903L46.3258 32.0274L50.9783 29.4586C51.2364 29.3165 51.464 29.1246 51.648 28.8939C51.832 28.6632 51.9689 28.3983 52.0506 28.1144C52.2129 27.5422 52.1457 26.9289 51.8634 26.4057C51.7214 26.1458 51.5294 25.9168 51.2986 25.732C51.0678 25.5473 50.8027 25.4103 50.5187 25.3292C49.9487 25.1663 49.3378 25.2338 48.8166 25.5171C47.5965 26.1956 46.3728 26.8667 45.1571 27.5335Z" fill="#142245"/>
<path d="M48.3797 0C49.0383 3.03263 50.3965 5.24823 51.5226 7.08526C52.5116 8.69849 53.3216 10.0198 53.3216 11.346C53.3216 14.1825 52.0904 17.0418 48.3854 17.0418C44.6804 17.0418 43.4436 14.1939 43.4436 11.346C43.4436 10.0129 44.2542 8.68975 45.2433 7.07513C46.3673 5.2405 47.7218 3.02954 48.3797 0Z" fill="#75C7F2"/>
</svg>

<svg width="68" height="70" fill="none" xmlns="http://www.w3.org/2000/svg"><path d="M61.856 16.601a1.934 1.934 0 00-2.364.694 1.951 1.951 0 001.207 3.004 1.934 1.934 0 001.998-.808 1.953 1.953 0 00-.84-2.89z" fill="#96A4D3"/><path fill-rule="evenodd" clip-rule="evenodd" d="M34.422.382a3.709 3.709 0 013.803 1.631 3.747 3.747 0 01-.046 4.15 3.709 3.709 0 01-5.732.504 3.741 3.741 0 01-.982-3.38A3.743 3.743 0 0133.074.924c.41-.269.868-.453 1.348-.543zM58.82 44.626a4.235 4.235 0 00-1.668-1.651l.97-.536a4.144 4.144 0 001.97-2.47 4.161 4.161 0 00-.341-3.146 4.057 4.057 0 00-1.782-1.708l.783-.433a4.135 4.135 0 001.987-2.474 4.16 4.16 0 00-.341-3.16 4.14 4.14 0 00-2.463-1.97 4.122 4.122 0 00-3.132.341l-.8.49a4.148 4.148 0 00-1.851-3.822 4.108 4.108 0 00-4.23-.165l-4.103 2.279a4.725 4.725 0 00-5.027-2.695l.448-.922a4.768 4.768 0 00-.713-5.23 4.716 4.716 0 00-5.086-1.34 4.739 4.739 0 00-2.711 2.412l-.454.94a4.79 4.79 0 00-2.026-1.903 4.721 4.721 0 00-3.613-.212 4.744 4.744 0 00-2.707 2.41l-9.839 20.21c-.223.33-.424.674-.601 1.03l-.567 1.19-.057-.147a84.502 84.502 0 01-.769-2.137l-.133-.38c-.925-2.712-2.695-4.056-4.483-4.312a4.489 4.489 0 00-2.331.273 4.757 4.757 0 00-1.918 1.418c-1.248 1.527-1.748 3.987-.54 6.932v.051c.25.733.563 1.758.93 2.961 1.53 5.005 4 13.089 6.662 16.023 4.085 4.5 14.667 8.726 20.358 6.71a13.112 13.112 0 007.438-6.67l.567-1.207a12455.71 12455.71 0 0020.545-11.352 4.144 4.144 0 001.965-2.472 4.16 4.16 0 00-.342-3.144l.005-.011zM44.243 28.035l.914-.502c1.216-.666 2.44-1.337 3.66-2.016a2.262 2.262 0 011.702-.188 2.227 2.227 0 011.344 1.077c.283.523.35 1.136.188 1.708a2.247 2.247 0 01-1.073 1.345l-4.652 2.568-.062-.037a5.19 5.19 0 00-.403-.225 4.695 4.695 0 00-2.656-.438l.568-1.14a4.8 4.8 0 00.47-2.152zm3.518 5.433l7.944-4.385a2.262 2.262 0 012.48.22c.23.185.42.414.56.674a2.287 2.287 0 01-.212 2.493 2.206 2.206 0 01-.672.566l-10.032 5.542.216-.456a4.713 4.713 0 00.21-3.623 4.776 4.776 0 00-.494-1.03zm-1.435 8.208l8.743-4.83a2.228 2.228 0 011.702-.188 2.212 2.212 0 011.345 1.077 2.287 2.287 0 01-.885 3.058L45.435 47.31l.902 1.675 7.807-4.312a2.262 2.262 0 012.485.216c.23.186.422.416.562.678a2.287 2.287 0 01-.213 2.493 2.217 2.217 0 01-.672.566L38.093 58.667l4.116-8.496 4.117-8.495zM34.15 61.862a10.948 10.948 0 01-6.241 5.588c-4.851 1.708-14.593-2.313-18.065-6.135C7.468 58.7 4.88 50.141 3.484 45.53a93.038 93.038 0 00-.755-2.436.871.871 0 00-.046-.148c-.88-2.13-.607-3.804.205-4.784.284-.35.653-.618 1.072-.78.39-.161.814-.215 1.231-.154 1.061.16 2.14 1.048 2.769 2.882l.094.27c.182.526.5 1.445.83 2.316.298.848.678 1.665 1.136 2.437.105.183.263.33.453.422h.948l2.082-3.714c2.126-4.445 4.269-8.84 6.423-13.255a3163.92 3163.92 0 003.932-8.081 2.59 2.59 0 011.48-1.31 2.528 2.528 0 011.97.114c.613.3 1.082.833 1.304 1.48a2.555 2.555 0 01-.113 1.977l-6.746 13.932 1.997.98 8.913-18.392c.222-.463.576-.85 1.017-1.11a2.562 2.562 0 012.866.18c.406.312.71.74.872 1.226a2.565 2.565 0 01-.12 1.97l-8.913 18.393 2.043.996 6.769-13.96a2.578 2.578 0 012.974-1.363c.492.13.935.404 1.272.786a2.596 2.596 0 01.395 2.844l-6.775 13.955 1.935.945 4.471-9.233a2.578 2.578 0 011.48-1.31 2.526 2.526 0 011.97.114 2.6 2.6 0 011.305 1.486 2.612 2.612 0 01-.114 1.977l-11.96 24.68zm33.169-34.687a2.102 2.102 0 00-3.532 1.636 2.118 2.118 0 001.377 1.9 2.098 2.098 0 002.274-.552 2.103 2.103 0 00.367-2.319 2.101 2.101 0 00-.486-.665zm-1.583.734a.819.819 0 01.843.357.828.828 0 01-.38 1.22.82.82 0 01-1.116-.614.828.828 0 01.653-.963zM25.463 7.143a2.097 2.097 0 012.14.94 2.12 2.12 0 01-.998 3.105 2.097 2.097 0 01-2.283-.491 2.117 2.117 0 011.141-3.554zm.239 1.27a.814.814 0 01.835.358.822.822 0 01-.38 1.21.814.814 0 01-1.108-.611.828.828 0 01.653-.957zm9.078-6.266a1.934 1.934 0 011.982.85 1.953 1.953 0 01-.9 2.872 1.933 1.933 0 01-2.11-.442 1.95 1.95 0 011.028-3.28z" fill="#142245"/><path d="M55.07 36.846l-8.744 4.83-4.117 8.495-4.116 8.496 18.213-10.042a2.217 2.217 0 001.072-1.35 2.287 2.287 0 00-.187-1.709 2.21 2.21 0 00-1.345-1.082 2.262 2.262 0 00-1.702.188l-7.807 4.312-.902-1.675 11.796-6.516a2.287 2.287 0 00.885-3.059 2.22 2.22 0 00-1.345-1.076 2.226 2.226 0 00-1.702.188zm.635-7.763l-7.944 4.386c.205.322.371.668.494 1.03a4.717 4.717 0 01-.21 3.623l-.216.456 10.032-5.542a2.206 2.206 0 001.072-1.35 2.287 2.287 0 00-.187-1.71 2.222 2.222 0 00-1.34-1.076 2.26 2.26 0 00-1.701.183zm-10.548-1.549l-.913.5a4.8 4.8 0 01-.471 2.154l-.568 1.139a4.695 4.695 0 012.656.438c.142.07.271.147.403.225l.062.037 4.652-2.568a2.236 2.236 0 001.073-1.345 2.286 2.286 0 00-.188-1.708 2.237 2.237 0 00-1.344-1.077 2.262 2.262 0 00-1.702.188c-1.22.679-2.444 1.35-3.66 2.017z" fill="#142245"/><path d="M48.38 0c.658 3.033 2.017 5.248 3.143 7.085.989 1.613 1.799 2.935 1.799 4.261 0 2.836-1.232 5.696-4.937 5.696s-4.941-2.848-4.941-5.696c0-1.333.81-2.656 1.8-4.27C46.366 5.24 47.721 3.03 48.38 0z" fill="#75C7F2"/></svg>
